symbols/web/library_books/materialsymbolsrounded/library_books_wght600gradN25fill1_20px.svg

<svg xmlns="http://www.w3.org/2000/svg" height="20" width="20"><path d="M9.5 8.979h4.833q.355 0 .625-.271.271-.27.271-.625 0-.354-.271-.625-.27-.27-.625-.27H9.5q-.354 0-.625.27-.271.271-.271.625 0 .355.271.625.271.271.625.271Zm0 2.604h1.708q.354 0 .625-.271.271-.27.271-.624 0-.355-.271-.626-.271-.27-.625-.27H9.5q-.354 0-.625.27-.271.271-.271.626 0 .354.271.624.271.271.625.271Zm0-5.208h4.833q.355 0 .625-.271.271-.271.271-.625t-.271-.625q-.27-.271-.625-.271H9.5q-.354 0-.625.271t-.271.625q0 .354.271.625t.625.271Zm-2.271 8.583q-.937 0-1.562-.625t-.625-1.562V3.396q0-.938.625-1.563t1.562-.625h9.375q.938 0 1.563.625t.625 1.563v9.375q0 .937-.625 1.562t-1.563.625Zm-3.833 3.834q-.938 0-1.563-.625t-.625-1.563V6.125q0-.417.334-.75.333-.333.75-.333.437 0 .77.333.334.333.334.75v10.479h10.479q.417 0 .75.334.333.333.333.77 0 .417-.333.75-.333.334-.75.334Z"/></svg>

<svg xmlns="http://www.w3.org/2000/svg" height="20" width="20"><path d="M9.5 8.979H14.333Q14.688 8.979 14.958 8.708Q15.229 8.438 15.229 8.083Q15.229 7.729 14.958 7.458Q14.688 7.188 14.333 7.188H9.5Q9.146 7.188 8.875 7.458Q8.604 7.729 8.604 8.083Q8.604 8.438 8.875 8.708Q9.146 8.979 9.5 8.979ZM9.5 11.583H11.208Q11.562 11.583 11.833 11.312Q12.104 11.042 12.104 10.688Q12.104 10.333 11.833 10.062Q11.562 9.792 11.208 9.792H9.5Q9.146 9.792 8.875 10.062Q8.604 10.333 8.604 10.688Q8.604 11.042 8.875 11.312Q9.146 11.583 9.5 11.583ZM9.5 6.375H14.333Q14.688 6.375 14.958 6.104Q15.229 5.833 15.229 5.479Q15.229 5.125 14.958 4.854Q14.688 4.583 14.333 4.583H9.5Q9.146 4.583 8.875 4.854Q8.604 5.125 8.604 5.479Q8.604 5.833 8.875 6.104Q9.146 6.375 9.5 6.375ZM7.229 14.958Q6.292 14.958 5.667 14.333Q5.042 13.708 5.042 12.771V3.396Q5.042 2.458 5.667 1.833Q6.292 1.208 7.229 1.208H16.604Q17.542 1.208 18.167 1.833Q18.792 2.458 18.792 3.396V12.771Q18.792 13.708 18.167 14.333Q17.542 14.958 16.604 14.958ZM3.396 18.792Q2.458 18.792 1.833 18.167Q1.208 17.542 1.208 16.604V6.125Q1.208 5.708 1.542 5.375Q1.875 5.042 2.292 5.042Q2.729 5.042 3.062 5.375Q3.396 5.708 3.396 6.125V16.604Q3.396 16.604 3.396 16.604Q3.396 16.604 3.396 16.604H13.875Q14.292 16.604 14.625 16.938Q14.958 17.271 14.958 17.708Q14.958 18.125 14.625 18.458Q14.292 18.792 13.875 18.792Z"/></svg>
